X:1
T:Millia quinque
T:Daniel Friderici
T:Source : Bicinia sacra---Rostock---J.Richelius---1642. Editor : André Vierendeels (04/07/17).
T:Notes : Original clefs : G2, G2 Original note values have been quartered Editorial accidentals above the staff Dotted brackets indicate black notes
T:-natural
T:Millia quinque
T:©
T:©
C:Daniel Friderici
Z:©
%%score [ 1 2 ]
L:1/8
Q:1/4=120
M:6/4
K:F
V:1 treble nm="Soprano 1" snm="S 1"
V:2 treble nm="Soprano 2" snm="S 2"
V:1
 ^c3 c d2 e2 f2 d2 | ^c4 z2 e3 e ^f2 | g2 a2 f2 e4 ae | f4 g2 e3 e f2 | g3 f g2 a6 :: %5
w: Mil- li- a quin- que vi-|rum, mil- li- a|quin- que vi- rum, mo- di-|co qui pi- sce re-|ple- * * vit:|
 a2 a2 a2 g2 f4 | e6 f3 f g2 | a2 g2 e2 ^f4 z2 |"^-natural" a3 a a2 g2 f2 e2 | d2 ^fg a2 g2 f2 e2 | %10
w: Pa- scet is ae- ter-|nis cre- du- la|cor- da bo- nis,|cre- du- la cor- da bo-|nis, cre- du- la cor- da bo-|
 d2 ag f2 e2 d2 ^c2 | d12 :| %12
w: nis, cre- du- la cor- da bo-|nis.|
V:2
 A3 A d2 ^c2 d2 B2 | A4 z2 A3 A d2 | c2 A2 d2 A4 AA | d4 G2 c3 c f2 | c3 d c2 F6 :: %5
w: Mil- li- a qui- que vi-|rum, mil- li- a|qui- que vi- rum, mo- di-|co qui pi- sces re-|ple- * * vit:|
 f2 f2 f2 c2 d4 | A4 z2 d3 d c2 |"^-natural" F2 G2 A2 D4 z2 | F3 F F2 c2 d2 A2 | %9
w: Pa- scet is ae- ter-|nis cre- du- la|cor- da bo- nis,|cre- du- la cor- da bo-|
 d2 dc f2 c2 d2 A2 | d2 Ae f2 c2 d2 A2 | D12 :| %12
w: nis, cre- du- la cor- da bo-|nis, cre- du- la cor- da bo-|nis.|

